public/flags/wls.svg

<?xml version="1.0" encoding="utf-8"?>
<!-- Uploaded to: SVG Repo, www.svgrepo.com, Generator: SVG Repo Mixer Tools -->
<svg width="800px" height="800px" viewBox="0 -4 28 28" fill="none" xmlns="http://www.w3.org/2000/svg">
<g clip-path="url(#clip0_1310_7618)">
<path d="M28 0H0V20H28V0Z" fill="url(#paint0_linear_1310_7618)"/>
<path d="M28 9.33334H0V20H28V9.33334Z" fill="url(#paint1_linear_1310_7618)"/>
<path d="M28 0H0V9.33333H28V0Z" fill="url(#paint2_linear_1310_7618)"/>
<path fill-rule="evenodd" clip-rule="evenodd" d="M10.755 15.1945L12.4033 14.9136L11.127 14.3117L12 13.8224C12 13.8224 13.4714 15.0648 13.4714 14.6667C13.4714 14.2388 14.8556 14.4259 14.8001 13.8224C14.7243 12.9966 13.2683 13.7619 13.0083 12.7297C12.8631 12.1531 12.4033 12.2266 12.4033 12.2266L10.9372 12.7297L10.207 13.8224L9.8444 12.7297C9.8444 12.7297 8.98851 13.4253 8.70378 13.8224C8.39948 14.2469 8.07731 15.1945 8.07731 15.1945L9.57275 15.8195L7.39193 15.4352L5.80062 15.8195L4.82373 16.0911L5.25277 15.6405L4.37777 15.1945L5.25277 14.6667L4.82373 14.3117L6.71436 14.6667C6.71436 14.6667 7.40532 14.5972 7.6665 14.3117C7.99593 13.9515 8.25456 12.7297 8.25456 12.7297L7.39193 12.2266L6.71436 13.4551C6.71436 13.4551 6.24694 12.2929 5.80062 11.6416C5.46807 11.1564 4.37777 10.0456 4.37777 10.0456L2.97168 10.785L3.7557 9.22168C3.7557 9.22168 4.37777 8.67839 3.98258 8.12126C3.5874 7.56413 3.25553 6.31706 3.25553 6.31706C3.25553 6.31706 4.07948 7.7456 4.37777 7.63509C4.79978 7.47875 3.85169 6.17555 4.37777 5.94352C4.75632 5.77656 4.82373 7.4375 4.82373 7.4375L5.25277 6.62256V7.63509C5.25277 7.63509 5.00364 8.84514 5.42708 9.56413C5.85053 10.2831 7.10791 10.785 7.10791 10.785C7.10791 10.785 6.78087 10.0636 7.10791 8.67839C7.32925 7.74092 8.11661 6.14128 8.48617 5.62874C8.68142 5.35794 6.92432 6.62256 6.92432 6.62256V5.62874L5.25277 5.45736L4.82373 5.94352L3.7557 4.19173L5.08464 4.86003H7.10791L6.71436 4.37695H5.08464C5.08464 4.37695 5.42708 3.67155 7.10791 3.67155L7.90267 3.13151C7.90267 3.13151 8.98934 3.1625 9.60083 3.18578C10.1455 3.20652 11.127 2.51562 11.127 2.51562L11.4032 3.18578L10.755 4.19173L11.4032 4.86003L11.127 5.27214L11.6022 5.94352H10.755L11.4032 6.98828L10.755 6.62256L11.127 7.63509L10.755 8.67839L12.4033 8.12126C12.4033 8.12126 12.4033 6.62256 13.0083 5.94352C14.8558 4.0485 17.8683 2.51562 17.8683 2.51562C17.8683 2.51562 17.7087 3.8921 18.1545 4C18.8016 4.15667 21.6279 2.86605 21.6279 2.86605C21.6279 2.86605 19.9299 4.69383 20.2775 4.86003C20.4648 4.94955 20.776 5.27214 20.776 5.27214C20.776 5.27214 19.3083 6.47193 19.063 6.98828C18.8177 7.50463 19.4225 8.12126 19.4225 8.12126C19.4225 8.12126 18.1545 8.12126 17.5226 8.67839C19.4225 8.67839 20.9766 9.57895 21.8965 8.91455C22.5129 8.46932 19.6892 8.74722 20.0599 7.63509C20.1974 7.22239 20.5568 6.74465 21.3796 6.62256C22.2023 6.50047 22.4938 6.98828 22.4938 6.98828L22.9367 6.31706H21.6279L24 4L24.3089 6.98828L23.5063 6.31706L23.1466 7.4375C24 10.0456 20.0599 10.5999 20.0599 10.5999L22.4938 12.2266L21.6279 12.4751L21.3796 14.9136L22.4938 15.8195L21.0291 15.4352L18.1545 16.0911L18.7264 15.1945L17.5226 15.4352L18.3267 14.6667L17.5226 14.3117L18.5505 14.0262L19.8454 14.9136C19.8454 14.9136 20.4859 14.0844 20.5568 13.6434C20.6299 13.1887 20.2775 12.2266 20.2775 12.2266C20.2775 12.2266 18.3699 12.1865 17.6969 12.0197C17.024 11.8529 16.6353 11.3237 16.6353 11.3237L15.8713 12.2266C15.8713 12.2266 18.5335 13.2241 17.8683 13.6434C17.7139 13.7407 16.9517 13.4551 16.9517 13.4551C16.9517 13.4551 15.6398 14.989 14.8001 15.1945C14.418 15.288 15.8713 15.8195 15.8713 15.8195C15.8713 15.8195 14.6303 15.6229 14 15.4352C13.3399 15.2387 11.4032 15.8195 11.4032 15.8195L10.755 15.1945ZM21.4487 8.07015C21.6328 8.07015 21.7821 7.92091 21.7821 7.73682C21.7821 7.55272 21.6328 7.40348 21.4487 7.40348C21.2646 7.40348 21.1154 7.55272 21.1154 7.73682C21.1154 7.92091 21.2646 8.07015 21.4487 8.07015Z" fill="url(#paint3_linear_1310_7618)"/>
</g>
<defs>
<linearGradient id="paint0_linear_1310_7618" x1="14" y1="0" x2="14" y2="20" gradientUnits="userSpaceOnUse">
<stop stop-color="white"/>
<stop offset="1" stop-color="#F0F0F0"/>
</linearGradient>
<linearGradient id="paint1_linear_1310_7618" x1="14" y1="9.33334" x2="14" y2="20" gradientUnits="userSpaceOnUse">
<stop stop-color="#3ACC55"/>
<stop offset="1" stop-color="#28A940"/>
</linearGradient>
<linearGradient id="paint2_linear_1310_7618" x1="14" y1="0" x2="14" y2="9.33333" gradientUnits="userSpaceOnUse">
<stop stop-color="white"/>
<stop offset="1" stop-color="#F0F0F0"/>
</linearGradient>
<linearGradient id="paint3_linear_1310_7618" x1="13.6403" y1="2.51562" x2="13.6403" y2="16.0911" gradientUnits="userSpaceOnUse">
<stop stop-color="#E91C44"/>
<stop offset="1" stop-color="#D20F35"/>
</linearGradient>
<clipPath id="clip0_1310_7618">
<rect width="28" height="20" rx="2" fill="white"/>
</clipPath>
</defs>
</svg>

<svg xmlns="http://www.w3.org/2000/svg" width="800" height="800" fill="none" viewBox="0 -4 28 28"><g clip-path="url(#a)"><path fill="url(#b)" d="M28 0H0v20h28z"/><path fill="url(#c)" d="M28 9.333H0V20h28z"/><path fill="url(#d)" d="M28 0H0v9.333h28z"/><path fill="url(#e)" fill-rule="evenodd" d="m10.755 15.195 1.648-.281-1.276-.602.873-.49s1.471 1.243 1.471.845c0-.428 1.385-.241 1.33-.845-.077-.825-1.533-.06-1.793-1.092-.145-.577-.605-.503-.605-.503l-1.466.503-.73 1.092-.363-1.092s-.855.695-1.14 1.092c-.305.425-.627 1.373-.627 1.373l1.496.624-2.181-.384-1.591.384-.977.272.429-.45-.875-.447.875-.527-.43-.355 1.891.355s.691-.07.952-.355c.33-.36.589-1.582.589-1.582l-.863-.503-.678 1.228s-.467-1.162-.913-1.813c-.333-.486-1.423-1.596-1.423-1.596l-1.406.739.784-1.563s.622-.544.227-1.1c-.396-.558-.727-1.805-.727-1.805s.823 1.429 1.122 1.318c.422-.156-.526-1.46 0-1.691.378-.167.446 1.494.446 1.494l.429-.815v1.012s-.25 1.21.174 1.93c.424.718 1.68 1.22 1.68 1.22s-.326-.721 0-2.107c.222-.937 1.01-2.537 1.38-3.05.194-.27-1.563.995-1.563.995v-.994l-1.671-.172-.43.487-1.067-1.752 1.329.668h2.023l-.394-.483h-1.63s.343-.705 2.024-.705l.795-.54s1.086.03 1.698.054c.544.02 1.526-.67 1.526-.67l.276.67-.648 1.006.648.668-.276.412.475.672h-.847l.648 1.044-.648-.365.372 1.012-.372 1.043 1.648-.557s0-1.498.605-2.177c1.848-1.896 4.86-3.428 4.86-3.428s-.16 1.376.287 1.484c.647.157 3.473-1.134 3.473-1.134s-1.698 1.828-1.35 1.994c.187.09.498.412.498.412s-1.468 1.2-1.713 1.716c-.245.517.36 1.133.36 1.133s-1.268 0-1.9.557c1.9 0 3.454.9 4.374.237.616-.446-2.208-.168-1.837-1.28.137-.413.497-.89 1.32-1.012.822-.123 1.114.365 1.114.365l.443-.67h-1.31L24 4l.309 2.988-.803-.67-.36 1.12C24 10.046 20.06 10.6 20.06 10.6l2.434 1.627-.866.248-.248 2.439 1.114.906-1.465-.385-2.875.656.572-.897-1.203.241.804-.768-.804-.355 1.027-.286 1.295.888s.64-.83.712-1.27c.073-.455-.28-1.417-.28-1.417s-1.907-.04-2.58-.207-1.062-.696-1.062-.696l-.764.903s2.662.997 1.997 1.416c-.154.098-.916-.188-.916-.188s-1.312 1.534-2.152 1.74c-.382.093 1.071.624 1.071.624s-1.24-.196-1.871-.384c-.66-.196-2.597.384-2.597.384zM21.449 8.07a.333.333 0 1 0 0-.667.333.333 0 0 0 0 .667" clip-rule="evenodd"/></g><defs><linearGradient id="b" x1="14" x2="14" y1="0" y2="20" gradientUnits="userSpaceOnUse"><stop stop-color="#fff"/><stop offset="1" stop-color="#f0f0f0"/></linearGradient><linearGradient id="c" x1="14" x2="14" y1="9.333" y2="20" gradientUnits="userSpaceOnUse"><stop stop-color="#3acc55"/><stop offset="1" stop-color="#28a940"/></linearGradient><linearGradient id="d" x1="14" x2="14" y1="0" y2="9.333" gradientUnits="userSpaceOnUse"><stop stop-color="#fff"/><stop offset="1" stop-color="#f0f0f0"/></linearGradient><linearGradient id="e" x1="13.64" x2="13.64" y1="2.516" y2="16.091" gradientUnits="userSpaceOnUse"><stop stop-color="#e91c44"/><stop offset="1" stop-color="#d20f35"/></linearGradient><clipPath id="a"><rect width="28" height="20" fill="#fff" rx="2"/></clipPath></defs></svg>
